dist/img/right_q.svg

<svg width="34" height="18" viewBox="0 0 34 18" fill="none" xmlns="http://www.w3.org/2000/svg">
<path d="M33.6637 1.78889C33.6637 3.33377 31.1087 6.24527 25.9987 10.5234C21.0076 14.8015 17.799 16.9406 16.3729 16.9406C16.2541 16.9406 16.1947 16.9406 16.1947 16.9406L16.0164 16.5841C21.2453 10.9987 23.8597 7.37422 23.8597 5.7105C23.8597 4.52214 23.9191 3.80912 24.0379 3.57144C24.3944 2.62075 25.4045 1.84831 27.0683 1.25412C28.732 0.541101 30.158 0.184592 31.3464 0.184592C32.8913 0.184592 33.6637 0.719358 33.6637 1.78889ZM17.9772 1.78889C17.9772 3.57144 15.4222 6.60178 10.3123 10.8799C5.32111 15.158 2.17193 17.2377 0.864724 17.1188H0.68647L0.508214 16.7623C1.81542 15.3363 3.12263 13.8508 4.42983 12.306C7.04424 9.33503 8.35145 7.25538 8.35145 6.06702C8.35145 5.94818 8.29203 5.76993 8.17319 5.53225C8.17319 5.29458 8.17319 5.11632 8.17319 4.99748C8.17319 3.69028 9.12389 2.56133 11.0253 1.61063C12.5702 0.778774 14.115 0.362845 15.6599 0.362845C17.2048 0.362845 17.9772 0.838193 17.9772 1.78889Z" fill="#C8C7C4"/>
</svg>

<svg width="34" height="18" viewBox="0 0 34 18" fill="none" xmlns="http://www.w3.org/2000/svg"><path d="M33.664 1.789c0 1.545-2.555 4.456-7.665 8.734-4.991 4.279-8.2 6.418-9.626 6.418h-.178l-.179-.357C21.246 11 23.86 7.374 23.86 5.711c0-1.189.06-1.902.178-2.14.356-.95 1.366-1.723 3.03-2.317 1.664-.713 3.09-1.07 4.278-1.07 1.545 0 2.318.535 2.318 1.605zm-15.687 0c0 1.782-2.555 4.813-7.665 9.09-4.99 4.279-8.14 6.359-9.447 6.24H.686l-.178-.357a149.648 149.648 0 003.922-4.456c2.614-2.971 3.92-5.05 3.92-6.239 0-.119-.059-.297-.178-.535v-.535c0-1.307.95-2.436 2.852-3.386C12.57.779 14.115.363 15.66.363s2.317.475 2.317 1.426z" fill="#C8C7C4"/></svg>
